packages/core/src/svgs/spank.svg

<svg width="24" height="24" viewBox="0 0 24 24" fill="none" xmlns="http://www.w3.org/2000/svg">
<g clip-path="url(#clip0_31_19051)">
<path d="M0 0H24V24H0V0Z" fill="#FF3B81"/>
<path d="M15.6865 9.20035L14.4668 13.6605L13.4597 13.5898L14.2191 8.99121L15.6865 9.20035ZM14.6228 14.1255L14.3057 15.7014L12.9659 15.3114L13.2728 13.7994L14.6228 14.1255Z" fill="white"/>
<path d="M7.08553 16.0672V16.1615H6.12253V14.3945L6.09253 14.4922L5.1711 14.2106L5.69182 12.5084L5.62753 12.6035L4.8291 12.0648L5.82682 10.5854L5.73167 10.6625L5.12567 9.91378L6.56139 8.75064L6.37796 8.82136L6.03296 7.92178L7.7481 7.2635L7.54753 7.27764L7.48024 6.31636L9.27596 6.19078L9.11396 6.1535L9.33082 5.21493L11.0464 5.61093L10.938 5.54878L11.4197 4.71436L12.9158 5.57836L12.8575 5.51578L13.5621 4.85878L14.7274 6.10807L14.7025 6.05707L15.5682 5.63493L16.3157 7.1675L16.3088 7.12464L17.2602 6.97378L17.541 8.74378L17.5607 8.61778L18.5121 8.76864L18.2275 10.5648L18.2978 10.4208L19.1635 10.8429L18.3621 12.4865L18.4791 12.3609L19.1837 13.0179L17.9382 14.3534L18.0891 14.2664L18.5708 15.1008L17.0052 16.0046L17.1625 15.9682L17.3794 16.9068L15.6497 17.3062L15.7825 17.3156L15.7157 18.2765L13.9842 18.1552L14.0721 18.1895L13.7271 19.0886L12.0694 18.4522L12.174 18.5371L11.568 19.2858L10.2 18.1779L10.2672 18.2778L9.46882 18.8165L8.49082 17.3666L8.51996 17.4618L7.5981 17.7438L7.08553 16.0672ZM7.08553 14.9229L7.68724 14.7386L8.15482 16.2686L8.6751 15.9172L9.56439 17.2355L9.96124 16.7452L11.1942 17.7429L11.4145 17.1686L12.8995 17.7386L12.9428 17.1172L14.5315 17.2282L14.3888 16.6089L15.9462 16.2489L15.6235 15.6901L17.0142 14.8874L16.5377 14.4434L17.6361 13.2656L17.0502 12.9798L17.7565 11.5312L17.1158 11.4301L17.3674 9.84007L16.7545 9.93693L16.503 8.34693L15.951 8.6165L15.2498 7.17864L14.7998 7.59821L13.7151 6.43464L13.4044 6.97207L12.0308 6.17921L11.889 6.79421L10.3435 6.43721L10.3885 7.07878L8.80196 7.19021L9.03682 7.80093L7.54282 8.37436L7.94439 8.87064L6.69082 9.88593L7.21967 10.2429L6.31582 11.5831L6.92482 11.7695L6.45296 13.3136H7.08553V14.9229Z" fill="white"/>
<path d="M11.8179 12.9744C11.8179 12.7348 11.7334 12.5518 11.5646 12.425C11.3953 12.2955 11.091 12.1601 10.6517 12.0191C10.2116 11.8755 9.86357 11.7345 9.60728 11.5965C8.90871 11.219 8.559 10.7102 8.559 10.0708C8.559 9.73781 8.652 9.4421 8.83757 9.18281C9.02657 8.92053 9.29614 8.71653 9.64543 8.56996C9.99771 8.42338 10.392 8.3501 10.8287 8.3501C11.2684 8.3501 11.6601 8.43024 12.0039 8.59095C12.3476 8.74867 12.6141 8.97281 12.8027 9.26296C12.9947 9.55353 13.0903 9.8831 13.0903 10.2521H11.8221C11.8221 9.97053 11.7334 9.75195 11.556 9.59681C11.3786 9.4391 11.1291 9.36024 10.8077 9.36024C10.4979 9.36024 10.257 9.42667 10.0851 9.5591C10.0032 9.61736 9.93687 9.69484 9.89188 9.78473C9.8469 9.87462 9.82467 9.97418 9.82714 10.0747C9.82714 10.2748 9.927 10.4424 10.1271 10.5778C10.3303 10.7128 10.6273 10.8397 11.019 10.958C11.7407 11.1752 12.2661 11.4444 12.5961 11.7654C12.9253 12.0868 13.0903 12.4871 13.0903 12.9658C13.0903 13.4985 12.8889 13.9172 12.486 14.2215C12.0831 14.5228 11.5406 14.6737 10.8583 14.6737C10.3851 14.6737 9.954 14.588 9.56486 14.4157C9.17614 14.2412 8.87914 14.003 8.67343 13.7017C8.47028 13.4 8.36914 13.0502 8.36914 12.6534H9.64114C9.64114 13.3322 10.047 13.6721 10.8583 13.6721C11.16 13.6721 11.3953 13.6112 11.5646 13.49C11.7334 13.3661 11.8179 13.1942 11.8179 12.9744Z" fill="white"/>
</g>
<defs>
<clipPath id="clip0_31_19051">
<rect width="24" height="24" fill="white"/>
</clipPath>
</defs>
</svg>

<svg xmlns="http://www.w3.org/2000/svg" width="24" height="24" fill="none" viewBox="0 0 24 24"><g clip-path="url(#a)"><path fill="#FF3B81" d="M0 0h24v24H0z"/><path fill="#fff" d="m15.687 9.2-1.22 4.46-1.007-.07.76-4.599zm-1.064 4.926-.317 1.575-1.34-.39.307-1.512z"/><path fill="#fff" d="M7.086 16.067v.095h-.963v-1.767l-.03.097-.922-.281.52-1.703-.063.096-.799-.54.998-1.479-.095.077-.606-.748L6.56 8.75l-.183.07-.345-.9 1.715-.658-.2.015-.068-.962 1.796-.125-.162-.037.217-.94 1.715.397-.108-.062.482-.835 1.496.864-.059-.062.705-.657 1.165 1.25-.024-.052.865-.422.748 1.533-.007-.043.951-.151.281 1.77.02-.126.951.15-.285 1.797.07-.144.866.422-.8 1.643.116-.125.705.657-1.246 1.335.151-.087.482.835-1.566.904.158-.037.216.939-1.73.4.134.009-.067.96-1.732-.12.088.034-.345.899-1.658-.637.105.085-.606.749-1.368-1.108.067.1-.798.539-.978-1.45.029.095-.922.282zm0-1.144.601-.184.468 1.53.52-.352.89 1.318.396-.49 1.233.998.22-.574 1.486.57.043-.622 1.588.111-.142-.62 1.557-.36-.322-.558 1.39-.803-.476-.444 1.098-1.177-.586-.286.706-1.449-.64-.1.251-1.59-.613.096-.251-1.59-.552.27-.701-1.438-.45.42-1.085-1.164-.31.537-1.374-.793-.142.615-1.545-.357.045.642-1.587.111.235.61-1.494.574.401.497-1.253 1.015.529.357-.904 1.34.609.187-.472 1.544h.633z"/><path fill="#fff" d="M11.818 12.974q0-.36-.253-.549-.255-.195-.913-.406a6.6 6.6 0 0 1-1.045-.422Q8.56 11.03 8.56 10.07q0-.5.279-.888.284-.393.807-.613.529-.22 1.184-.22.66 0 1.175.24.516.238.799.673.287.435.287.99h-1.268q0-.423-.266-.656-.266-.237-.748-.237-.465 0-.723.2a.61.61 0 0 0-.258.515q0 .3.3.503.304.203.892.38 1.083.326 1.577.807.495.483.494 1.2 0 .8-.604 1.257-.604.451-1.628.452a3.2 3.2 0 0 1-1.293-.258q-.583-.263-.892-.714a1.83 1.83 0 0 1-.304-1.049h1.272q0 1.02 1.217 1.02.453 0 .707-.183a.6.6 0 0 0 .253-.516"/></g><defs><clipPath id="a"><path fill="#fff" d="M0 0h24v24H0z"/></clipPath></defs></svg>
